epam-assets/icon-sources/18/internal-logo/opportunites.svg

<svg width="18" height="18" viewBox="0 0 18 18" fill="none" xmlns="http://www.w3.org/2000/svg">
<g id="18/internal-logo/opportunites">
<path id="icon" fill-rule="evenodd" clip-rule="evenodd" d="M8.15625 1.5L10.6875 2.76562L8.15625 4.45312V3.62836C5.56151 3.84362 3.51562 6.0226 3.51562 8.67187C3.51562 10.5372 4.53002 12.1694 6.03591 13.0475C6.39355 13.2561 6.45609 13.747 6.16331 14.0398L6.1611 14.042C5.95638 14.2467 5.63955 14.2851 5.38949 14.139C3.51162 13.0413 2.25 11.0039 2.25 8.67187C2.25 5.31892 4.85824 2.57662 8.15625 2.35925V1.5ZM15.5646 14.7635L13.4775 12.6764C14.3703 11.5855 14.9062 10.1913 14.9062 8.67185C14.9062 6.31136 13.6136 4.25324 11.6979 3.16554C11.4672 3.03465 11.1799 3.05838 10.9763 3.22808L10.9737 3.23019C10.6342 3.51316 10.682 4.048 11.0666 4.2659C12.602 5.13601 13.6406 6.78449 13.6406 8.67185C13.6406 11.3211 11.5946 13.5001 9 13.7154V12.8906L6.46875 14.5781L9 15.8437V14.9846C10.355 14.8952 11.5937 14.3806 12.5827 13.5712L14.6698 15.6583C14.7933 15.7819 14.9553 15.8437 15.1172 15.8437C15.2791 15.8437 15.4411 15.7819 15.5646 15.6583C15.8118 15.4113 15.8118 15.0106 15.5646 14.7635ZM8.57812 8.67187C9.27707 8.67187 9.84375 8.10519 9.84375 7.40625C9.84375 6.70731 9.27707 6.14062 8.57812 6.14062C7.87918 6.14062 7.3125 6.70731 7.3125 7.40625C7.3125 8.10519 7.87918 8.67187 8.57812 8.67187ZM7.3125 9.09375H9.84375C10.3097 9.09375 10.6875 9.47154 10.6875 9.9375V10.8475C10.0264 11.0769 9.31725 11.2031 8.57812 11.2031C7.839 11.2031 7.12983 11.0769 6.46875 10.8475V9.9375C6.46875 9.47154 6.84654 9.09375 7.3125 9.09375Z" fill="#6C6F80"/>
</g>
</svg>

<svg xmlns="http://www.w3.org/2000/svg" width="18" height="18" fill="none" viewBox="0 0 18 18">
  <path fill="#6C6F80" fill-rule="evenodd" d="m8.156 1.5 2.531 1.266-2.53 1.687v-.825a5.068 5.068 0 0 0-4.641 5.044 5.064 5.064 0 0 0 2.52 4.375c.358.21.42.7.127.993l-.002.002a.636.636 0 0 1-.772.097 6.327 6.327 0 0 1 2.767-11.78V1.5Zm7.409 13.264-2.088-2.088a6.325 6.325 0 0 0-1.78-9.51.636.636 0 0 0-.72.062l-.003.002a.632.632 0 0 0 .093 1.036 5.064 5.064 0 0 1 2.574 4.406A5.068 5.068 0 0 1 9 13.715v-.824l-2.531 1.687L9 15.844v-.86a6.299 6.299 0 0 0 3.583-1.413l2.087 2.087a.63.63 0 0 0 .895 0 .633.633 0 0 0 0-.894ZM8.578 8.672a1.266 1.266 0 1 0 0-2.531 1.266 1.266 0 0 0 0 2.53Zm-1.265.422h2.53c.467 0 .845.378.845.844v.91a6.421 6.421 0 0 1-4.22 0v-.91c0-.466.379-.844.845-.844Z" clip-rule="evenodd"/>
</svg>
